public/new/svg20.svg

<svg fill="none" height="28" viewBox="0 0 28 28" width="28" xmlns="http://www.w3.org/2000/svg"><g fill="#77787e"><path d="m1.78906 23.0006.859-.854.221-.228c.18-.19.38-.409.597-.655.619-.704 1.238-1.478 1.815-2.298.982-1.396 1.738-2.776 2.177-4.081 1.234-3.667 5.95704-4.716 8.92304-1.263 3.251 3.785-.037 9.38-5.379 9.38h-9.21104zm9.21104-1c4.544 0 7.272-4.642 4.621-7.728-2.45-2.853-6.22504-2.015-7.21604.931-.474 1.408-1.273 2.869-2.307 4.337-.599.852-1.241 1.653-1.882 2.383l-.068.078h6.85304z"/><path d="m18.1816 6.00195-1.419 1.286c-1.031.935-1.075 2.501-.096 3.48005l1.877 1.877c.976.976 2.553.954 3.513-.045l5.65-5.87405-.721-.693-5.65 5.87405c-.574.596-1.507.609-2.086.031l-1.877-1.877c-.574-.57405-.548-1.48005.061-2.03205l1.419-1.286z"/></g></svg>

<svg width="28" height="28" viewBox="0 0 28 28" fill="none" xmlns="http://www.w3.org/2000/svg">
<path d="M1.78906 23.0006L2.64806 22.1466L2.86906 21.9186C3.04906 21.7286 3.24906 21.5096 3.46606 21.2636C4.08506 20.5596 4.70406 19.7856 5.28106 18.9656C6.26306 17.5696 7.01906 16.1896 7.45806 14.8846C8.69206 11.2176 13.4151 10.1686 16.3811 13.6216C19.6321 17.4066 16.3441 23.0016 11.0021 23.0016H1.79106L1.78906 23.0006ZM11.0001 22.0006C15.5441 22.0006 18.2721 17.3586 15.6211 14.2726C13.1711 11.4196 9.39606 12.2576 8.40506 15.2036C7.93106 16.6116 7.13206 18.0726 6.09806 19.5406C5.49906 20.3926 4.85706 21.1936 4.21606 21.9236L4.14806 22.0016H11.0011L11.0001 22.0006Z" fill="#77787E"/>
<path d="M18.1816 6.00195L16.7626 7.28795C15.7316 8.22295 15.6876 9.78895 16.6666 10.768L18.5436 12.645C19.5196 13.621 21.0966 13.599 22.0566 12.6L27.7066 6.72595L26.9856 6.03295L21.3356 11.907C20.7616 12.503 19.8286 12.516 19.2496 11.938L17.3726 10.061C16.7986 9.48695 16.8246 8.58095 17.4336 8.02895L18.8526 6.74295L18.1816 6.00195Z" fill="#77787E"/>
</svg>
